Newaita-dark/actions/22/window-new.svg

<svg height="22" viewBox="0 0 22 22" width="22" xmlns="http://www.w3.org/2000/svg"><g fill="#e0e0e0"><path d="m14.097656 16.089844h5.457032c.253906 0 .457031.203125.457031.453125v.910156c0 .253906-.203125.457031-.457031.457031h-5.457032c-.25 0-.453125-.203125-.453125-.457031v-.910156c0-.25.203125-.453125.453125-.453125zm0 0"/><path d="m17.738281 14.269531v5.457031c0 .253907-.203125.457032-.457031.457032h-.910156c-.25 0-.453125-.203125-.453125-.457032v-5.457031c0-.25.203125-.453125.453125-.453125h.910156c.253906 0 .457031.203125.457031.453125zm0 0"/><path d="m1.820312 3.808594c0-1.007813.808594-1.816406 1.816407-1.816406h14.554687c1.007813 0 1.820313.808593 1.820313 1.816406v8.1875h-1.820313v-3.636719h-14.554687v9.09375c0 .503906.40625.910156.910156.910156h7.277344v1.820313h-8.1875c-1.007813 0-1.816407-.8125-1.816407-1.820313zm1.816407.910156v2.730469h14.554687v-2.730469c0-.503906-.40625-.910156-.910156-.910156h-12.734375c-.503906 0-.910156.40625-.910156.910156zm0 0"/></g></svg>

<?xml version="1.0" encoding="UTF-8"?>
<svg xmlns="http://www.w3.org/2000/svg" xmlns:xlink="http://www.w3.org/1999/xlink" width="22px" height="22px" viewBox="0 0 22 22" version="1.1">
<g id="surface1">
<path style=" stroke:none;fill-rule:nonzero;fill:rgb(87.843138%,87.843138%,87.843138%);fill-opacity:1;" d="M 14.097656 16.089844 L 19.554688 16.089844 C 19.808594 16.089844 20.011719 16.292969 20.011719 16.542969 L 20.011719 17.453125 C 20.011719 17.707031 19.808594 17.910156 19.554688 17.910156 L 14.097656 17.910156 C 13.847656 17.910156 13.644531 17.707031 13.644531 17.453125 L 13.644531 16.542969 C 13.644531 16.292969 13.847656 16.089844 14.097656 16.089844 Z M 14.097656 16.089844 "/>
<path style=" stroke:none;fill-rule:nonzero;fill:rgb(87.843138%,87.843138%,87.843138%);fill-opacity:1;" d="M 17.738281 14.269531 L 17.738281 19.726562 C 17.738281 19.980469 17.535156 20.183594 17.28125 20.183594 L 16.371094 20.183594 C 16.121094 20.183594 15.917969 19.980469 15.917969 19.726562 L 15.917969 14.269531 C 15.917969 14.019531 16.121094 13.816406 16.371094 13.816406 L 17.28125 13.816406 C 17.535156 13.816406 17.738281 14.019531 17.738281 14.269531 Z M 17.738281 14.269531 "/>
<path style=" stroke:none;fill-rule:nonzero;fill:rgb(87.843138%,87.843138%,87.843138%);fill-opacity:1;" d="M 1.820312 3.808594 C 1.820312 2.800781 2.628906 1.992188 3.636719 1.992188 L 18.191406 1.992188 C 19.199219 1.992188 20.011719 2.800781 20.011719 3.808594 L 20.011719 11.996094 L 18.191406 11.996094 L 18.191406 8.359375 L 3.636719 8.359375 L 3.636719 17.453125 C 3.636719 17.957031 4.042969 18.363281 4.546875 18.363281 L 11.824219 18.363281 L 11.824219 20.183594 L 3.636719 20.183594 C 2.628906 20.183594 1.820312 19.371094 1.820312 18.363281 Z M 3.636719 4.71875 L 3.636719 7.449219 L 18.191406 7.449219 L 18.191406 4.71875 C 18.191406 4.214844 17.785156 3.808594 17.28125 3.808594 L 4.546875 3.808594 C 4.042969 3.808594 3.636719 4.214844 3.636719 4.71875 Z M 3.636719 4.71875 "/>
</g>
</svg>
